X: 12785
T: Feakle Fiddle, The
R: reel
M: 4/4
K: Gmajor
GE|:DG G2 BA B/c/d|g3 d ed B/c/d|g2 gd edBG|1 A3 B AGEG:|2 A3 B G3 c||
|:BG G2 AGAB|cB B/c/d cege|d/e/d BG d/e/d BG|1 A3 B AGEc:|2 A3 B G2 B/c/d||
|:g2 bg g2 bg|g2 bg agef|g2 gd edBG|1 A3 B AG B/c/d:|2 A3 B G2 EG||
|:D/E/D BD D/E/D BD|E/F/E cE E/F/E cE|D/E/D BD D/E/D BD|1 A3 B AGEG:|2 A3 B GFGE||
|:DG G2 AGEG|Ac c2 edce|1 dg g2 agab|c'/b/a bg agec:|2 dg g2 agec|BAGF G2||

